packages/ckeditor5-icons/theme/icons/line-height.svg

<svg viewBox="0 0 20 20" xmlns="http://www.w3.org/2000/svg">
<path d="M17.6676 15.0958L18.3661 14.4194L19 15.0333L16.9691 17L15.0027 15.0333L15.6366 14.4194L16.3226 15.0837V6.01877C16.3226 5.9823 16.3226 5.9467 16.3244 5.91197L15.6339 6.58055L15 5.96667L16.9691 4L19 5.96667L18.3661 6.58055L17.6649 5.90155C17.6667 5.93889 17.6676 5.97883 17.6676 6.01877V15.0958Z"/>
<path d="M1 4.72222C1 5.12089 1.252 5.44444 1.5625 5.44444H12.4375C12.5867 5.44444 12.7298 5.36835 12.8352 5.23291C12.9407 5.09747 13 4.91377 13 4.72222C13 4.53068 12.9407 4.34698 12.8352 4.21153C12.7298 4.07609 12.5867 4 12.4375 4H1.5625C1.41332 4 1.27024 4.07609 1.16475 4.21153C1.05926 4.34698 1 4.53068 1 4.72222ZM1 12.4259C1 12.8246 1.252 13.1481 1.5625 13.1481H12.4375C12.5114 13.1481 12.5845 13.1295 12.6528 13.0932C12.721 13.0569 12.783 13.0037 12.8352 12.9366C12.8875 12.8695 12.9289 12.7899 12.9572 12.7023C12.9855 12.6147 13 12.5208 13 12.4259C13 12.3311 12.9855 12.2372 12.9572 12.1495C12.9289 12.0619 12.8875 11.9823 12.8352 11.9152C12.783 11.8482 12.721 11.795 12.6528 11.7587C12.5845 11.7224 12.5114 11.7037 12.4375 11.7037H1.5625C1.41332 11.7037 1.27024 11.7798 1.16475 11.9152C1.05926 12.0507 1 12.2344 1 12.4259ZM1 16.2778C1 16.6764 1.252 17 1.5625 17H9.00925C9.15843 17 9.30151 16.9239 9.407 16.7885C9.51249 16.653 9.57175 16.4693 9.57175 16.2778C9.57175 16.0862 9.51249 15.9025 9.407 15.7671C9.30151 15.6316 9.15843 15.5556 9.00925 15.5556H1.5625C1.41332 15.5556 1.27024 15.6316 1.16475 15.7671C1.05926 15.9025 1 16.0862 1 16.2778ZM1 8.57407C1 8.97274 1.252 9.2963 1.5625 9.2963H12.4375C12.5867 9.2963 12.7298 9.2202 12.8352 9.08476C12.9407 8.94932 13 8.76562 13 8.57407C13 8.38253 12.9407 8.19883 12.8352 8.06339C12.7298 7.92794 12.5867 7.85185 12.4375 7.85185H1.5625C1.41332 7.85185 1.27024 7.92794 1.16475 8.06339C1.05926 8.19883 1 8.38253 1 8.57407Z"/>
</svg>

<svg xmlns="http://www.w3.org/2000/svg" viewBox="0 0 20 20"><path d="m17.668 15.096.698-.677.634.614L16.97 17l-1.967-1.967.634-.614.686.665V6.019l.001-.107-.69.669L15 5.967 16.97 4 19 5.967l-.634.614-.701-.68q.003.058.003.118zM1 4.722c0 .399.252.722.563.722h10.875a.5.5 0 0 0 .397-.211.84.84 0 0 0 .165-.51.84.84 0 0 0-.165-.511.5.5 0 0 0-.398-.212H1.563a.5.5 0 0 0-.398.212.84.84 0 0 0-.165.51m0 7.704c0 .399.252.722.563.722h10.875a.46.46 0 0 0 .215-.055.6.6 0 0 0 .182-.156.8.8 0 0 0 .122-.235.9.9 0 0 0 0-.553.8.8 0 0 0-.122-.234.6.6 0 0 0-.182-.156.46.46 0 0 0-.216-.055H1.563a.5.5 0 0 0-.398.211.84.84 0 0 0-.165.51m0 3.852c0 .398.252.722.563.722h7.446c.15 0 .293-.076.398-.212a.84.84 0 0 0 .165-.51.84.84 0 0 0-.165-.51.5.5 0 0 0-.398-.212H1.563a.5.5 0 0 0-.398.211.84.84 0 0 0-.165.51m0-7.704c0 .399.252.722.563.722h10.875a.5.5 0 0 0 .397-.211.84.84 0 0 0 .165-.51.84.84 0 0 0-.165-.512.5.5 0 0 0-.398-.211H1.563a.5.5 0 0 0-.398.211.84.84 0 0 0-.165.511"/></svg>
